dowodnowy_files/ab010_more.svg

<svg width="24" height="24" xmlns="http://www.w3.org/2000/svg">

 <g>
  <title>Layer 1</title>
  <path id="path_0" d="m12,2c-5.5,0 -10,4.5 -10,10s4.5,10 10,10s10,-4.5 10,-10s-4.5,-10 -10,-10zm0,18.5c-4.7,0 -8.5,-3.8 -8.5,-8.5s3.8,-8.5 8.5,-8.5s8.5,3.8 8.5,8.5s-3.8,8.5 -8.5,8.5zm1,-8.5c0,0.6 -0.4,1 -1,1s-1,-0.4 -1,-1s0.4,-1 1,-1s1,0.4 1,1zm-4,0c0,0.6 -0.4,1 -1,1s-1,-0.4 -1,-1s0.4,-1 1,-1s1,0.4 1,1zm8,0c0,0.6 -0.4,1 -1,1s-1,-0.4 -1,-1s0.4,-1 1,-1s1,0.4 1,1z" fill="#ffffff"/>
 </g>
</svg>

<svg id="vector" xmlns="http://www.w3.org/2000/svg" width="24.0d" height="24.0d" viewBox="0 0 24.0 24.0"><path fill="#000000ff" d="M12,2C6.5,2 2,6.5 2,12s4.5,10 10,10s10,-4.5 10,-10S17.5,2 12,2zM12,20.5c-4.7,0 -8.5,-3.8 -8.5,-8.5S7.3,3.5 12,3.5s8.5,3.8 8.5,8.5S16.7,20.5 12,20.5zM13,12c0,0.6 -0.4,1 -1,1s-1,-0.4 -1,-1s0.4,-1 1,-1S13,11.4 13,12zM9,12c0,0.6 -0.4,1 -1,1s-1,-0.4 -1,-1s0.4,-1 1,-1S9,11.4 9,12zM17,12c0,0.6 -0.4,1 -1,1s-1,-0.4 -1,-1s0.4,-1 1,-1S17,11.4 17,12z" id="path_0"/></svg>
